X: 1
T: The Dancing Bear
R: reel
M: 4/4
L: 1/8
K: Emin
|:EFGF EFGF|EFGA G2 E2|EFGF EFGF|EFGA G2 E2|
EFGF EFGF|EFGA B2 e2|B2BA BcBA|GFE2 E3z:|
|:e2 ef gfef|gf e2 e3z|e2 ef gfef|gf e2 e3z|
e2 ef gfef|gf e2 dcB2|B2BA BcBA|GFE2 E3z:|


Tune 5582	Setting 17630

